assets/ri/ri-e-bike-2-fill.svg

<svg xmlns="http://www.w3.org/2000/svg" width="100%" height="100%" viewBox="0 0 24 24"><path d="M16 1C16.5522847 1 17 1.44771525 17 2L17 3 22 3 22 9 19.980979 9 22.7270773 16.5448432C22.9032836 16.9958219 23 17.4866163 23 18 23 20.209139 21.209139 22 19 22 17.1361606 22 15.5700603 20.7252272 15.1260175 19L10.8739825 19C10.4299397 20.7252272 8.86383943 22 7 22 5.05550552 22 3.43507622 20.612512 3.0747418 18.7735658 2.43596423 18.4396361 2 17.7707305 2 17L2 7C2 6.44771525 2.44771525 6 3 6L10 6C10.5522847 6 11 6.44771525 11 7L11 12C11 12.5522847 11.4477153 13 12 13L14 13C14.5522847 13 15 12.5522847 15 12L15 3 12 3 12 1 16 1ZM19 16C17.8954305 16 17 16.8954305 17 18 17 19.1045695 17.8954305 20 19 20 20.1045695 20 21 19.1045695 21 18 21 17.7596672 20.9576092 17.5292353 20.8798967 17.3157736L20.8635387 17.2724216C20.5725256 16.5276089 19.8478776 16 19 16ZM7 16C5.8954305 16 5 16.8954305 5 18 5 19.1045695 5.8954305 20 7 20 8.1045695 20 9 19.1045695 9 18 9 16.8954305 8.1045695 16 7 16ZM9 8L4 8 4 10 9 10 9 8ZM20 5L17 5 17 7 20 7 20 5Z" /></svg>

<svg xmlns="http://www.w3.org/2000/svg" width="100%" height="100%" viewBox="0 0 24 24"><path fill="none" d="M0 0h24v24H0z"/><path d="M16 1a1 1 0 011 1v1h5v6h-2.019l2.746 7.545A4 4 0 1115.126 19h-4.252a4.002 4.002 0 01-7.8-.226A2 2 0 012 17V7a1 1 0 011-1h7a1 1 0 011 1v5a1 1 0 001 1h2a1 1 0 001-1V3h-3V1h4zm3 15a2 2 0 101.88 1.316l-.016-.044A2 2 0 0019 16zM7 16a2 2 0 100 4 2 2 0 000-4zm2-8H4v2h5V8zm11-3h-3v2h3V5z"/></svg>
